Origami/64x64/apps/wine-help.svg

<svg width="64" height="64" version="1" xmlns="http://www.w3.org/2000/svg">
 <rect transform="matrix(0,-1,-1,0,0,0)" x="-60" y="-60" width="56" height="56" rx="3" ry="3" style="fill:#4f4f4f"/>
 <path d="m11.429735 35.0002h17.142021c0.789964 0 1.427935 0.637968 1.427935 1.427929v17.141942c0 0.791961-0.637971 1.429929-1.427935 1.429929h-17.143221c-0.791364 0-1.428535-0.637968-1.428535-1.427929v-17.143142c0-0.789961 0.637171-1.427929 1.428535-1.427929z" style="opacity:.2"/>
 <g transform="matrix(1.9999364,0,0,2,9.1814987e-4,1.0006)" style="opacity:.2">
  <path d="m5.7143 5h8.5714c0.395 0 0.714 0.3186 0.714 0.7143v8.5714c0 0.395-0.319 0.714-0.714 0.714h-8.5717c-0.3957 0-0.7143-0.319-0.7143-0.714v-8.5717c0-0.3957 0.3186-0.7143 0.7143-0.7143z"/>
  <path d="m17.714 5h8.5714c0.396 0 0.715 0.3186 0.715 0.7143v8.5714c0 0.395-0.319 0.714-0.714 0.714h-8.5714c-0.396 0-0.715-0.319-0.715-0.714v-8.5714c0-0.39571 0.31857-0.71429 0.71429-0.71429z"/>
 </g>
 <path d="m7 4c-1.662 0-3 1.338-3 3v1c0-1.662 1.338-3 3-3h50c1.662 0 3 1.338 3 3v-1c0-1.662-1.338-3-3-3h-50z" style="fill:#ffffff;opacity:.1"/>
 <g transform="matrix(1.9999364,0,0,2,9.181526e-4,6e-4)" style="fill:#48aeff">
  <path d="m5.7143 5h8.5714c0.395 0 0.714 0.3186 0.714 0.7143v8.5714c0 0.395-0.319 0.714-0.714 0.714h-8.5717c-0.3957 0-0.7143-0.319-0.7143-0.714v-8.5717c0-0.3957 0.3186-0.7143 0.7143-0.7143z"/>
  <path d="m17.714 5h8.5714c0.396 0 0.715 0.3186 0.715 0.7143v8.5714c0 0.395-0.319 0.714-0.714 0.714h-8.5714c-0.396 0-0.715-0.319-0.715-0.714v-8.5714c0-0.39571 0.31857-0.71429 0.71429-0.71429z"/>
 </g>
 <path d="m11.4292 34h17.1428c0.79 0 1.428 0.637974 1.428 1.427943v17.142114c0 0.791969-0.638 1.429943-1.428 1.429943h-17.1434c-0.7914 0-1.4286-0.637974-1.4286-1.427943v-17.143314c0-0.789969 0.6372-1.427943 1.4286-1.427943z" style="fill:#48aeff"/>
 <path d="m4 57v1c0 1.662 1.338 3 3 3h50c1.662 0 3-1.338 3-3v-1c0 1.662-1.338 3-3 3h-50c-1.662 0-3-1.338-3-3z" style="opacity:.2"/>
 <circle cx="46" cy="46" r="16" style="fill:#fa6257"/>
 <path d="m43.02724 53.747563c0-0.415154 0.0596-0.765906 0.1788-1.053215 0.1192-0.28637 0.28444-0.517978 0.4968-0.694784 0.2114-0.176806 0.46124-0.30463 0.74856-0.384393 0.28636-0.0788 0.5929-0.119204 0.91962-0.119204 0.30942 0 0.60348 0.0404 0.8812 0.119204 0.2777 0.0798 0.52274 0.207567 0.7351 0.384393 0.21142 0.176806 0.37862 0.408414 0.50258 0.694784 0.124 0.287309 0.1854 0.638061 0.1854 1.053215 0 0.397834-0.0614 0.738026-0.1854 1.020555-0.124 0.28157-0.29116 0.516998-0.50258 0.702464-0.21236 0.184606-0.4574 0.319051-0.7351 0.403614-0.27772 0.0836-0.57178 0.125804-0.8812 0.125804-0.32672 0-0.63326-0.0422-0.91962-0.125804-0.28732-0.0846-0.53716-0.219108-0.74856-0.403614-0.21236-0.185406-0.37766-0.420894-0.4968-0.702464-0.118-0.282009-0.178-0.622021-0.178-1.020035m0.43724-4.529954v-0.979233c0-0.450695 0.0462-0.859109 0.1392-1.225242 0.0922-0.367072 0.23352-0.714944 0.42378-1.046495 0.1894-0.330571 0.43434-0.653442 0.73416-0.966733 0.30076-0.313291 0.66304-0.638102 1.08682-0.973473 0.37092-0.29117 0.6842-0.551599 0.9398-0.782227 0.25656-0.228707 0.46316-0.456475 0.6227-0.682283 0.1586-0.224868 0.27386-0.460316 0.344-0.707284 0.0712-0.247928 0.1068-0.535278 0.1068-0.861029 0-0.503557-0.171-0.919651-0.51028-1.245423-0.34018-0.326731-0.85908-0.490096-1.5567-0.490096-0.6083 0-1.2646 0.127804-1.96706 0.383433-0.70052 0.256569-1.42796 0.569839-2.1784 0.940792l-1.3501-2.9271c0.37862-0.221027 0.79182-0.430514 1.23768-0.628461 0.44686-0.199007 0.91002-0.375753 1.3905-0.530458 0.48142-0.153805 0.96958-0.275809 1.4635-0.364212 0.4949-0.0884 0.98016-0.132605 1.45776-0.132605 0.9004 0 1.7124 0.108604 2.436 0.324811 0.72456 0.216207 1.3386 0.531398 1.84116 0.946552 0.5045 0.415134 0.88984 0.919651 1.1589 1.510652 0.27002 0.59196 0.40456 1.266563 0.40456 2.025668 0 0.556399-0.0626 1.053236-0.1854 1.490471-0.123 0.437255-0.3075 0.843729-0.5487 1.218502-0.24408 0.375752-0.5487 0.738025-0.91482 1.085916-0.36612 0.348832-0.79278 0.717845-1.27806 1.106078-0.37092 0.29117-0.6736 0.545819-0.90808 0.762046-0.23352 0.216227-0.41706 0.421874-0.5487 0.615021-0.1326 0.195007-0.22292 0.395933-0.27194 0.6035-0.0482 0.206607-0.073 0.451656-0.073 0.734185v0.794727h-3.496z" style="fill:#ffffff"/>
 <path d="M 30.025391,46.501953 A 16,16 0 0 0 30,47 16,16 0 0 0 46,63 16,16 0 0 0 62,47 16,16 0 0 0 61.982422,46.507812 16,16 0 0 1 46,62 16,16 0 0 1 30.025391,46.501953 Z" style="opacity:.2"/>
</svg>

<svg xmlns="http://www.w3.org/2000/svg" width="64" height="64" version="1">
 <rect style="fill:#4f4f4f" width="56" height="56" x="-60" y="-60" rx="3" ry="3" transform="matrix(0,-1,-1,0,0,0)"/>
 <path style="opacity:0.2" d="m 11.429735,35.0002 17.142021,0 c 0.789964,0 1.427935,0.637968 1.427935,1.427929 l 0,17.141942 C 29.999691,54.362032 29.36172,55 28.571756,55 L 11.428535,55 C 10.637171,55 10,54.362032 10,53.572071 L 10,36.428929 C 10,35.638968 10.637171,35.001 11.428535,35.001 Z"/>
 <g style="opacity:0.2" transform="matrix(1.9999364,0,0,2,9.1814987e-4,1.0006)">
  <path d="m 5.7143,5 8.5714,0 c 0.395,0 0.714,0.3186 0.714,0.7143 l 0,8.5714 c 0,0.395 -0.319,0.714 -0.714,0.714 l -8.5717,0 c -0.3957,0 -0.7143,-0.319 -0.7143,-0.714 l 0,-8.5717 c 0,-0.3957 0.3186,-0.7143 0.7143,-0.7143 z"/>
  <path d="m 17.714,5 8.5714,0 c 0.396,0 0.715,0.3186 0.715,0.7143 l 0,8.5714 c 0,0.395 -0.319,0.714 -0.714,0.714 l -8.5714,0 c -0.396,0 -0.715,-0.319 -0.715,-0.714 l 0,-8.5714 c 0,-0.39571 0.31857,-0.71429 0.71429,-0.71429 z"/>
 </g>
 <path style="opacity:0.1;fill:#ffffff" d="M 7 4 C 5.338 4 4 5.338 4 7 L 4 8 C 4 6.338 5.338 5 7 5 L 57 5 C 58.662 5 60 6.338 60 8 L 60 7 C 60 5.338 58.662 4 57 4 L 7 4 z"/>
 <g style="fill:#48aeff" transform="matrix(1.9999364,0,0,2,9.181526e-4,6e-4)">
  <path d="m 5.7143,5 8.5714,0 c 0.395,0 0.714,0.3186 0.714,0.7143 l 0,8.5714 c 0,0.395 -0.319,0.714 -0.714,0.714 l -8.5717,0 c -0.3957,0 -0.7143,-0.319 -0.7143,-0.714 l 0,-8.5717 c 0,-0.3957 0.3186,-0.7143 0.7143,-0.7143 z"/>
  <path d="m 17.714,5 8.5714,0 c 0.396,0 0.715,0.3186 0.715,0.7143 l 0,8.5714 c 0,0.395 -0.319,0.714 -0.714,0.714 l -8.5714,0 c -0.396,0 -0.715,-0.319 -0.715,-0.714 l 0,-8.5714 c 0,-0.39571 0.31857,-0.71429 0.71429,-0.71429 z"/>
 </g>
 <path style="fill:#48aeff" d="M 11.4292,34 28.572,34 C 29.362,34 30,34.637974 30,35.427943 l 0,17.142114 C 30,53.362026 29.362,54 28.572,54 L 11.4286,54 C 10.6372,54 10,53.362026 10,52.572057 L 10,35.428743 C 10,34.638774 10.6372,34.0008 11.4286,34.0008 Z"/>
 <path style="opacity:0.2" d="m 4,57 0,1 c 0,1.662 1.338,3 3,3 l 50,0 c 1.662,0 3,-1.338 3,-3 l 0,-1 c 0,1.662 -1.338,3 -3,3 L 7,60 C 5.338,60 4,58.662 4,57 Z"/>
 <circle style="fill:#fa6257" cx="46" cy="46" r="16"/>
 <path style="fill:#ffffff" d="m 43.02724,53.747563 c 0,-0.415154 0.0596,-0.765906 0.1788,-1.053215 0.1192,-0.28637 0.28444,-0.517978 0.4968,-0.694784 0.2114,-0.176806 0.46124,-0.30463 0.74856,-0.384393 0.28636,-0.0788 0.5929,-0.119204 0.91962,-0.119204 0.30942,0 0.60348,0.0404 0.8812,0.119204 0.2777,0.0798 0.52274,0.207567 0.7351,0.384393 0.21142,0.176806 0.37862,0.408414 0.50258,0.694784 0.124,0.287309 0.1854,0.638061 0.1854,1.053215 0,0.397834 -0.0614,0.738026 -0.1854,1.020555 -0.124,0.28157 -0.29116,0.516998 -0.50258,0.702464 -0.21236,0.184606 -0.4574,0.319051 -0.7351,0.403614 C 45.9745,55.957796 45.68044,56 45.37102,56 45.0443,56 44.73776,55.9578 44.4514,55.874196 c -0.28732,-0.0846 -0.53716,-0.219108 -0.74856,-0.403614 -0.21236,-0.185406 -0.37766,-0.420894 -0.4968,-0.702464 -0.118,-0.282009 -0.178,-0.622021 -0.178,-1.020035 m 0.43724,-4.529954 0,-0.979233 c 0,-0.450695 0.0462,-0.859109 0.1392,-1.225242 0.0922,-0.367072 0.23352,-0.714944 0.42378,-1.046495 0.1894,-0.330571 0.43434,-0.653442 0.73416,-0.966733 0.30076,-0.313291 0.66304,-0.638102 1.08682,-0.973473 0.37092,-0.29117 0.6842,-0.551599 0.9398,-0.782227 0.25656,-0.228707 0.46316,-0.456475 0.6227,-0.682283 0.1586,-0.224868 0.27386,-0.460316 0.344,-0.707284 0.0712,-0.247928 0.1068,-0.535278 0.1068,-0.861029 0,-0.503557 -0.171,-0.919651 -0.51028,-1.245423 -0.34018,-0.326731 -0.85908,-0.490096 -1.5567,-0.490096 -0.6083,0 -1.2646,0.127804 -1.96706,0.383433 -0.70052,0.256569 -1.42796,0.569839 -2.1784,0.940792 L 40.3,37.655736 c 0.37862,-0.221027 0.79182,-0.430514 1.23768,-0.628461 0.44686,-0.199007 0.91002,-0.375753 1.3905,-0.530458 0.48142,-0.153805 0.96958,-0.275809 1.4635,-0.364212 C 44.88658,36.044205 45.37184,36 45.84944,36 c 0.9004,0 1.7124,0.108604 2.436,0.324811 0.72456,0.216207 1.3386,0.531398 1.84116,0.946552 0.5045,0.415134 0.88984,0.919651 1.1589,1.510652 0.27002,0.59196 0.40456,1.266563 0.40456,2.025668 0,0.556399 -0.0626,1.053236 -0.1854,1.490471 -0.123,0.437255 -0.3075,0.843729 -0.5487,1.218502 -0.24408,0.375752 -0.5487,0.738025 -0.91482,1.085916 -0.36612,0.348832 -0.79278,0.717845 -1.27806,1.106078 -0.37092,0.29117 -0.6736,0.545819 -0.90808,0.762046 -0.23352,0.216227 -0.41706,0.421874 -0.5487,0.615021 -0.1326,0.195007 -0.22292,0.395933 -0.27194,0.6035 -0.0482,0.206607 -0.073,0.451656 -0.073,0.734185 l 0,0.794727 -3.496,0 z"/>
 <path style="opacity:0.2" d="M 30.025391,46.501953 A 16,16 0 0 0 30,47 16,16 0 0 0 46,63 16,16 0 0 0 62,47 16,16 0 0 0 61.982422,46.507812 16,16 0 0 1 46,62 16,16 0 0 1 30.025391,46.501953 Z"/>
</svg>
